lib/healthicons/icons/solid/specialties/gynecology.svg

<svg fill="none" height="48" viewBox="0 0 48 48" width="48" xmlns="http://www.w3.org/2000/svg"><path clip-rule="evenodd" d="m9 6c-1.65685 0-3 1.34315-3 3v30c0 1.6569 1.34315 3 3 3h30c1.6569 0 3-1.3431 3-3v-30c0-1.65685-1.3431-3-3-3zm1.4891 9.915c-.4845.4848-.61822 1.0587-.3388 1.5511.3409.6009.7203 1.1266 1.0783 1.5631-.3523.0517-.6636.2034-.9004.4615-.2583.2816-.39576.655-.42141 1.0738-.48005-.5564-1.01732-1.2676-1.49605-2.1114-.87393-1.5404-.21108-3.0766.66381-3.9519.44357-.4438 1.00645-.7962 1.60335-.9489.5965-.1526 1.3531-.1259 1.9549.4044 1.0447.9207 1.5273 1.0002 1.7892 1.0254.0447.0043.1038.0053.1752.0064.3708.0062 1.0721.0177 1.7951.5275l-1.1524 1.6346c-.1925-.1357-.2303-.1369-.4594-.1437-.1174-.0035-.2852-.0085-.5498-.034-.792-.0761-1.6509-.4007-2.9041-1.5015-.0213-.0029-.0682-.0032-.153.0185-.1908.0488-.4484.1889-.6845.4251zm.8519-.4396c-.0003.0004-.0036-.0002-.0093-.0031.0067.0013.0095.0027.0093.0031zm3.9444 5.5342c1.318 1.2505 1.6856 2.9596.821 3.8173-.8645.8578-2.6338.5394-3.9518-.7111s-1.6856-2.9596-.821-3.8173c.8646-.8578 2.6338-.5394 3.9518.7111zm21.7539-5.1191c.4449.4765.5932 1.0772.3157 1.6008-.311.5869-.656 1.1016-.9829 1.5313.3482.0443.6561.1978.8877.4681.2525.2948.3814.69.3963 1.1327.466-.5689.9965-1.3095 1.466-2.1955.7999-1.5093.2041-3.0187-.6209-3.9023-.4163-.4458-.9533-.8096-1.5353-.969-.5902-.1616-1.3416-.1297-1.9274.423-.9736.9185-1.4067.9816-1.6158 1.0031-.0354.0037-.0849.0044-.1463.0053-.3388.0051-1.0412.0156-1.7454.5471l1.2049 1.5963c.1568-.1183.1681-.1186.3531-.1237.1047-.0029.2649-.0073.5385-.0355.7698-.0792 1.5838-.4158 2.7439-1.5007.0152.0019.0368.006.0662.0141.1538.0421.3831.1708.6017.4049zm-.6972-.4198c.0003.0003.0034.0004.0089-.0009-.0064 0-.0091.0006-.0089.0009zm-4.1906 5.5389c-1.318 1.2505-1.6856 2.9596-.8211 3.8173.8646.8578 2.6339.5394 3.9519-.7111s1.6855-2.9596.821-3.8173c-.8646-.8578-2.6339-.5394-3.9518.7111zm-12.1043 1.033c-2.7086 0-6.7715-8.0426 4.0629-8.0426s6.32 8.0426 3.6114 8.0426c-1.2899 0-1.3892 2.9386-1.4934 6.0169-.0772 2.2845-.1571 4.646-.7281 5.9405-.1788.4053-.4846.2841-.8245.1493-.1834-.0727-.3768-.1493-.5654-.1493-.1796 0-.3856.0695-.5913.1389-.4109.1386-.8209.2769-1.0188-.1389-.6233-1.3096-.7476-3.7114-.867-6.0207-.1577-3.049-.3071-5.9367-1.5858-5.9367z" fill="#333" fill-rule="evenodd"/></svg>

<svg width="48" height="48" viewBox="0 0 48 48" fill="none" xmlns="http://www.w3.org/2000/svg">
<path fill-rule="evenodd" clip-rule="evenodd" d="M9 6C7.34315 6 6 7.34315 6 9V39C6 40.6569 7.34315 42 9 42H39C40.6569 42 42 40.6569 42 39V9C42 7.34315 40.6569 6 39 6H9ZM10.4891 15.915C10.0046 16.3998 9.87088 16.9737 10.1503 17.4661C10.4912 18.067 10.8706 18.5927 11.2286 19.0292C10.8763 19.0809 10.565 19.2326 10.3282 19.4907C10.0699 19.7723 9.93244 20.1457 9.90679 20.5645C9.42674 20.0081 8.88947 19.2969 8.41074 18.4531C7.53681 16.9127 8.19966 15.3765 9.07455 14.5012C9.51812 14.0574 10.081 13.705 10.6779 13.5523C11.2744 13.3997 12.031 13.4264 12.6328 13.9567C13.6775 14.8774 14.1601 14.9569 14.422 14.9821C14.4667 14.9864 14.5258 14.9874 14.5972 14.9885C14.968 14.9947 15.6693 15.0062 16.3923 15.516L15.2399 17.1506C15.0474 17.0149 15.0096 17.0137 14.7805 17.0069C14.6631 17.0034 14.4953 16.9984 14.2307 16.9729C13.4387 16.8968 12.5798 16.5722 11.3266 15.4714C11.3053 15.4685 11.2584 15.4682 11.1736 15.4899C10.9828 15.5387 10.7252 15.6788 10.4891 15.915ZM11.341 15.4754C11.3407 15.4758 11.3374 15.4752 11.3317 15.4723C11.3384 15.4736 11.3412 15.475 11.341 15.4754ZM15.2854 21.0096C16.6034 22.2601 16.971 23.9692 16.1064 24.8269C15.2419 25.6847 13.4726 25.3663 12.1546 24.1158C10.8366 22.8653 10.469 21.1562 11.3336 20.2985C12.1982 19.4407 13.9674 19.7591 15.2854 21.0096ZM37.0393 15.8905C37.4842 16.367 37.6325 16.9677 37.355 17.4913C37.044 18.0782 36.699 18.5929 36.3721 19.0226C36.7203 19.0669 37.0282 19.2204 37.2598 19.4907C37.5123 19.7855 37.6412 20.1807 37.6561 20.6234C38.1221 20.0545 38.6526 19.3139 39.1221 18.4279C39.922 16.9186 39.3262 15.4092 38.5012 14.5256C38.0849 14.0798 37.5479 13.716 36.9659 13.5566C36.3757 13.395 35.6243 13.4269 35.0385 13.9796C34.0649 14.8981 33.6318 14.9612 33.4227 14.9827C33.3873 14.9864 33.3378 14.9871 33.2764 14.988C32.9376 14.9931 32.2352 15.0036 31.531 15.5351L32.7359 17.1314C32.8927 17.0131 32.904 17.0128 33.089 17.0077C33.1937 17.0048 33.3539 17.0004 33.6275 16.9722C34.3973 16.893 35.2113 16.5564 36.3714 15.4715C36.3866 15.4734 36.4082 15.4775 36.4376 15.4856C36.5914 15.5277 36.8207 15.6564 37.0393 15.8905ZM36.3421 15.4707C36.3424 15.471 36.3455 15.4711 36.351 15.4698C36.3446 15.4698 36.3419 15.4704 36.3421 15.4707ZM32.1515 21.0096C30.8335 22.2601 30.4659 23.9692 31.3304 24.8269C32.195 25.6847 33.9643 25.3663 35.2823 24.1158C36.6003 22.8653 36.9678 21.1562 36.1033 20.2985C35.2387 19.4407 33.4694 19.7591 32.1515 21.0096ZM20.0472 22.0426C17.3386 22.0426 13.2757 14 24.1101 14C34.9445 14 30.4301 22.0426 27.7215 22.0426C26.4316 22.0426 26.3323 24.9812 26.2281 28.0595C26.1509 30.344 26.071 32.7055 25.5 34C25.3212 34.4053 25.0154 34.2841 24.6755 34.1493C24.4921 34.0766 24.2987 34 24.1101 34C23.9305 34 23.7245 34.0695 23.5188 34.1389C23.1079 34.2775 22.6979 34.4158 22.5 34C21.8767 32.6904 21.7524 30.2886 21.633 27.9793C21.4753 24.9303 21.3259 22.0426 20.0472 22.0426Z" fill="#333333"/>
</svg>
